src/icons/place.svg

<?xml version="1.0" encoding="UTF-8"?>
<svg width="12px" height="18px" viewBox="0 0 12 18" version="1.1" xmlns="http://www.w3.org/2000/svg" xmlns:xlink="http://www.w3.org/1999/xlink">
    <title>L</title>
    <g id="Homepage-R3--✔" stroke="none" stroke-width="1" fill="" fill-rule="evenodd">
        <path d="M6,18 C6.12304688,18 6.27246094,17.9208984 6.33398438,17.8154297 L11.2294922,8.93847656 C11.7041016,8.0859375 12.0029297,7.06640625 12.0029297,6.00292969 C12.0029297,2.68945312 9.31347656,0 6,0 C2.68652344,0 -0.0029296875,2.68945312 -0.0029296875,6.00292969 C-0.0029296875,7.06640625 0.26953125,8.0859375 0.770507812,8.93847656 L5.66601562,17.8154297 C5.72753906,17.9208984 5.85058594,18 6,18 Z M6,8.25292969 C4.75195312,8.25292969 3.75,7.25097656 3.75,6.00292969 C3.75,4.74609375 4.75195312,3.75292969 6,3.75292969 C7.24804688,3.75292969 8.25,4.74609375 8.25,6.00292969 C8.25,7.25097656 7.24804688,8.25292969 6,8.25292969 Z" id="L" fill="" fill-rule="nonzero"></path>
    </g>
</svg>

<svg viewBox="0 0 12 18" xmlns="http://www.w3.org/2000/svg">
    <path d="M6 18a.42.42 0 00.334-.185l4.895-8.877a6.085 6.085 0 00.774-2.935A6.005 6.005 0 006 0 6.005 6.005 0 00-.003 6.003c0 1.063.273 2.083.774 2.935l4.895 8.877A.384.384 0 006 18zm0-9.747a2.243 2.243 0 01-2.25-2.25A2.238 2.238 0 016 3.753c1.248 0 2.25.993 2.25 2.25A2.243 2.243 0 016 8.253z" fill="currentColor"/>
</svg>
